!!!ONB: MCCC : ICA0053_06 : Extracted Monophonic Melody
!!!COM: Alkan, Charles-Valentin
!!!OPR: 25 Préludes dans tous les tons majeurs et mineurs pour piano ou orgue
!!!OMV: 6
!!!SCT: Op.31
!!!ODT: 1844///
**kern
*staff1
*IPiano
*clefG2
*k[b-e-]
*B-:
*met(c)
*M4/4
4d
=1
2g
8b-
8g
8b-
8g
=2
16f#
16g
16f#
16e-
4d
.
=3
2g
8b-
8g
8b-
8g
=4
16f#
16g
16f#
16e-
4d
.
=5
2g
4b-
4b-
=6
4.dd
8a
16cc
16b-
16a
16g
12f#
12g
12a
=7
2g
4r
4d
=8
2g
8b-
8g
8b-
8g
=9
16f#
16g
16f#
16e-
4d
4r
8r
8d
=10
2g
8b-
8g
8b-
8g
=11
16f#
16g
16f#
16e-
4d
2r
=12
2g
4b-
4b-
=13
4.dd
8a
16cc
16b-
16a
16g
12f#
12g
12a
=14
2g
4r
8r
8d
=15
2b
4a
8.g
16g
=16
2a
4g
4d
=17
6g
6f#
6g
6a
6g
6a
=18
2dd
4r
8.r
16d
=19
2cc
4b
8.a
16a
=20
2b
4a
4g
=21
4.dd
8a
16cc
16b-
16a
16g
12f#
12g
12a
=22
2g
2r
=23
*M3/2
6g
6f#
6g
4b-
4a
2g
=24
6g
6f#
6g
2dd
2f#
=25
4f#
4f#
6g
6f
6e
6f
6e
6d
6e-
6d
6c
4g
2d
=26
*M4/4
2bb
4aa
4gg
=27
2aa
4gg
4dd
=28
6gg
6ff#
6gg
6aa
6gg
6aa
=29
1ddd
=30
4ddd
4ddd
2ddd
4ddd
4ddd
2ddd
4ggg
2ddd
=31
2cc
4b
4a
=32
2b
4a
4g
=33
4.dd
8a
16cc
16b-
16a
16g
12f#
12g
12a
=34
1g
=35
2ddd
1ggg
=36
*M3/2
6g
6f#
6g
4b-
4a
2g
=37
6g
6f#
6g
2dd
2f#
=38
4f#
4f#
6g
6f
6e
6f
6e
6d
6e-
6d
6c
4g
2d
=39
*M4/4
2bb
4aa
4gg
=40
2aa
4gg
4dd
=41
6gg
6ff#
6gg
6aa
6gg
6aa
=42
1ddd
=43
4ddd
4ddd
2ddd
4ddd
4ddd
2ddd
4ggg
2ddd
=44
2cc
4b
4a
=45
2b
4a
4g
=46
4.dd
8a
16cc
16b-
16a
16g
12f#
12g
12a
=47
1g
=48
2ddd
1ggg
==
*-
